X:2
T: Mach auf mein Schatz, mein goldne Pfort,
N: D0002
O: Europa, Mitteleuropa, Lothringen, Altripp
N: Inzipit = Variante zum Lied
R: Tage - Lied, Kiltlied
M: 4/4
L: 1/16
K: G
D2 | D2G2G2F2G6A2 | _B2A2G4A6
G2 | =F4A2A2G4D2E2 | =F4E4D4z2
d2 | d2c2d2dc_B6c2 | d2_e2d2c_BA6
G2 | G2=F2G2A2_B2c2d2c2 | _B4A4G4z2

